images/project-save-dark.svg

<?xml version="1.0" encoding="UTF-8" standalone="no"?><!DOCTYPE svg PUBLIC "-//W3C//DTD SVG 1.1//EN" "http://www.w3.org/Graphics/SVG/1.1/DTD/svg11.dtd"><svg width="16px" height="16px" viewBox="0 0 16 16" version="1.1" xmlns="http://www.w3.org/2000/svg" xmlns:xlink="http://www.w3.org/1999/xlink" xml:space="preserve" xmlns:serif="http://www.serif.com/" style="fill-rule:evenodd;clip-rule:evenodd;stroke-linejoin:round;stroke-miterlimit:2;"><path d="M5.006,1l9.495,-0.001l0.5,0.5l-0.011,13.003l-0.5,0.5l-10.99,0l-0.5,-0.5l0.006,-6.502l1,0l-0.006,6.002l8.007,0l0,-12.003l-7.001,0.001l0,-1Zm7.987,0.999l0,12.003l0.997,0l0.011,-12.003l-1.008,0Zm-9.993,2.001l-3,0l0,-1l3,0l0,-3l1,0l0,3l3,0l0,1l-3,0l0,3l-1,0l0,-3Z" style="fill:#c5c5c5;"/></svg>

<?xml version="1.0" encoding="UTF-8" standalone="no"?><!DOCTYPE svg PUBLIC "-//W3C//DTD SVG 1.1//EN" "http://www.w3.org/Graphics/SVG/1.1/DTD/svg11.dtd"><svg width="16px" height="16px" viewBox="0 0 16 16" version="1.1" xmlns="http://www.w3.org/2000/svg" xmlns:xlink="http://www.w3.org/1999/xlink" xml:space="preserve" xmlns:serif="http://www.serif.com/" style="fill-rule:evenodd;clip-rule:evenodd;stroke-linejoin:round;stroke-miterlimit:2;"><path d="M5.006,1L14.501,0.999L15.001,1.499L14.99,14.502L14.49,15.002L3.5,15.002L3,14.502L3.006,8L4.006,8L4,14.002L11.007,14.002L11.007,1.999L5.006,2L5.006,1ZM11.993,1.999L11.993,14.002L13.99,14.002L14.001,1.999L11.993,1.999ZM3,4L0,4L0,3L3,3L3,0L4,0L4,3L7,3L7,4L4,4L4,7L3,7L3,4Z" style="fill:rgb(197,197,197);"/></svg>
